**kern
*clefG2
*k[f#c#g#d#]
*M3/4
=1-
2b
4cc#
=2
8b
2a
(16b
16a)
=3
4gn
2r
=4
2g#
4a# 4f# 4d#
=5
(4a
16a)
4r
16r
16g#
16gn
=6
16a
8a
4.r
16g#
16a
16a
=7
4.b
16a-
8an
16g# 16e
8r
=8
8f#
16f#
(8e
4d#)
8e
16d#
=9
8e
4f#
4g#
16a
16a
=10
8.b
16a
4a
8g#
16a
16g#
=11
*-